X:35
T:Masons Apron. JBu.35
O:England,South Yorkshire
S:Joshua Burnett’s MS,c1835,S.Yorkshire
M:4/4
L:1/8
Q:1/2=70
R:reel
N:No rhythm sign in MS
Z:vmp.R.Greig.2011
K:A
e2|c>AA>B A>BA>G|E>FG>Ac2BA|d>BB>c B>cB>A|B>cd>e f2ed|
c>AA>B A>BA>G|EFGA c2BA|B>cd>e f>ef>a|e>dc>BA2:|
|:”qu in MS”e2|c>Ad>A f>Ae>A|c>Ae>A f>ed>c|d>Bf>B a>Bf>B|d>Bf>B g>fe>d|
c>Ae>A f>Ae>A|E>FG>Ac2BA|B>cd>e f>ef>g|edcBA2:|

